X:18740
T:White River Stomp
M:4/4
L:1/8
K:F
(3G,A,B,|C>DE2 FGAc|d2^c2 =c2 (3G,A,B,|C>DE2 FGAA|c2=B2 _B2 (3G,A,C|
C>DE2 FGAA|e2_e2 d4|c>dc2 B>A^G2|A6 (3G,A,B,|
C>DE2 FGAc|d2^c2 =c2 (3G,A,B,|C>DE2 FGAA|c2=B2 _B2 (3G,A,C|
C>DE2 FGAA|e2_e2 d4|f>gf2 d>cA2|F4 z2CD|
E2c2 E2c2|E2c3dcA|F2A2 F2A2|F2A3dcA|
E2c2 E2c2|E2c3dcA|F2A2 F2A2|F2A3cde|
f>ef2 a2g2|f>ed2 c2A>B|c<aa2 f2g2|f6z2|
b4 g4|e>ge2 c4|a>^ga2 f>ef2|cdcA F4|
b4 g4|e>ge2 c4|a>ga2 f>ef2|cdcA F2D>_E|
E2c2 E2c2|E2c3dcA|F2A2 F2A2|F2A3dcA|
E2c2 E2c2|E2c3dcA|F2A2 F2A2|F2A3cde|
f>ef2 a2g2|f>ed2 c2A>B|c>aa2 f2g2|f4 z2:|


